X: 10
T: Capt.n Brisbane's Frolic
T: Captain Brisbane's Frolic
M: 2/4
L: 1/8
B: Goulding & Co. - Twenty Four Country Dances for the Year 1808 (London) p.5 #2
F: http://petrucci.mus.auth.gr/imglnks/usimg/7/7e/IMSLP351864-PMLP71783-goulding_24_dances_1808.pdf
Z: Transcribed and edited by Flynn Titford-Mock
Z: ABC's: AK/Fiddler's Companion
Z: Dance added 2015 by John Chambers  <jc:trillian.mit.edu>
K: F
% - - - - - - - - - - - - - - - - - - - - - - - - - - - - -
A/B/ |\
cA/B/ cf/a/ | c3 A/B/ | cc/B/ AA/G/ | AF FA/B/ |\
cA/B/ cf/a/ | c3 A/B/ | cc {d}cB/A/ | A2 A :|!
|:\
BGG e/f/ | g[ec] [ec]z | c[AF][AF] f/g/ | a[fA] [f2A2] |\
dbca | BgAf | c/B/A/B/ c/B/A/G/ | FAF :|
% - - - - - - - - - - Dance description - - - - - - - - - -
%%begintext align
%% Hands across & back again, lead down the
%% middle & up again, cast off & Allemande.
%%endtext
